X:172
T: Muede kehrt ein Wanderer zurueck
N: D1003
O: Europa, Mitteleuropa, Deutschland, ???, Walensee, Oberterzen
N: DVA-Signatur A 21 144
R: Liebes - Lied
M: 4/4
L: 1/8
K: G
DD | B3AGFGA | D2z4
FG | A3GFAed | B2z4
DD | B3dcBAG | c2z3
cce | d3GG2G2 | B2A2G2

